;FLAVOR:Marlin
;TIME:9223
;Filament used: 11.5846m
;Layer height: 0.2
;MINX:25.439
;MINY:26.694
;MINZ:0.2
;MAXX:217.953
;MAXY:129.837
;MAXZ:6.8
;Generated with Cura_SteamEngine 4.6.2
M140 S50
M105
M190 S50
M104 S210
M105
M109 S210
M82 ;absolute extrusion mode
M300 S4978 P125
M300 S4978 P62
M300 S2489 P62
M300 S2489 P93
M300 S1864 P250
M300 S1244 P125
M300 S4978 P62
M300 S1244 P2000
M300 S932 P375
M300 S2093 P93
M300 S932 P62
M300 S932 P93
M300 S0 P62
M300 S2793 P93
M300 S3322 P62
M300 S1567 P187
M300 S2793 P125
M300 S1567 P62
M300 S1567 P125
M300 S2793 P93
M300 S1396 P62
M300 S1 P62
M300 S1244 P375
M300 S1 P500

; Ender 3 Custom Start G-code
G92 E0 ; Reset Extruder
G28 ; Home all axes
G1 Z2.0 F3000 ; Move Z Axis up little to prevent scratching of Heat Bed
G1 X0.1 Y20 Z0.3 F5000.0 ; Move to start position
G1 X0.1 Y200.0 Z0.3 F1500.0 E15 ; Draw the first line
G1 X0.4 Y200.0 Z0.3 F5000.0 ; Move to side a little
G1 X0.4 Y20 Z0.3 F1500.0 E30 ; Draw the second line
G92 E0 ; Reset Extruder
G1 Z2.0 F3000 ; Move Z Axis up little to prevent scratching of Heat Bed
G1 X5 Y20 Z0.3 F5000.0 ; Move over to prevent blob squish
M141 S28
G92 E0
G92 E0
G1 F1500 E-6.5
;LAYER_COUNT:34
;LAYER:0
M107
G0 F6000 X36.551 Y128.183 Z0.2
;TYPE:SKIRT
G1 F1500 E0
G1 F1200 X35.647 Y128.13 E0.03598
G1 X34.752 Y127.998 E0.07193
G1 X33.871 Y127.787 E0.10793
G1 X33.013 Y127.499 E0.1439
G1 X32.183 Y127.136 E0.1799
G1 X31.389 Y126.702 E0.21585
G1 X30.636 Y126.199 E0.25184
G1 X29.93 Y125.632 E0.28782
G1 X29.278 Y125.005 E0.32377
G1 X28.683 Y124.323 E0.35973
G1 X28.15 Y123.591 E0.39571
G1 X27.684 Y122.814 E0.43172
G1 X27.289 Y122 E0.46767
G1 X26.967 Y121.154 E0.50364
G1 X26.721 Y120.283 E0.53961
G1 X26.552 Y119.393 E0.57561
G1 X26.452 Y118.208 E0.62286
G1 X26.439 Y117.598 E0.64711
G1 X26.439 Y38.617 E3.78564
G1 X26.44 Y38.463 E3.79176
G1 X26.45 Y37.799 E3.81815
G1 X26.504 Y36.895 E3.85414
G1 X26.637 Y35.999 E3.89013
G1 X26.849 Y35.119 E3.9261
G1 X27.137 Y34.261 E3.96207
G1 X27.5 Y33.432 E3.99803
G1 X27.935 Y32.638 E4.03401
G1 X28.438 Y31.885 E4.06999
G1 X29.006 Y31.18 E4.10597
G1 X29.633 Y30.527 E4.14194
G1 X30.316 Y29.933 E4.17791
G1 X31.049 Y29.401 E4.2139
G1 X31.825 Y28.936 E4.24985
G1 X32.64 Y28.541 E4.28584
G1 X33.486 Y28.219 E4.32181
G1 X34.358 Y27.974 E4.3578
G1 X35.247 Y27.806 E4.39376
G1 X36.411 Y27.707 E4.44018
G1 X37.019 Y27.694 E4.46434
G1 X115.982 Y27.694 E7.60216
G1 X116.129 Y27.695 E7.608
G1 X116.827 Y27.705 E7.63574
G1 X117.681 Y27.753 E7.66973
G1 X118.93 Y27.875 E7.7196
G1 X121.563 Y28.105 E7.82463
G1 X124.099 Y28.251 E7.92557
G1 X126.68 Y28.326 E8.02818
G1 X128.091 Y28.337 E8.08425
G1 X205.996 Y28.337 E11.18003
G1 X206.143 Y28.338 E11.18587
G1 X206.841 Y28.348 E11.21361
G1 X207.745 Y28.401 E11.24959
G1 X208.64 Y28.533 E11.28554
G1 X209.521 Y28.744 E11.32154
G1 X210.379 Y29.032 E11.35751
G1 X211.209 Y29.395 E11.3935
G1 X212.003 Y29.829 E11.42946
G1 X212.756 Y30.332 E11.46545
G1 X213.462 Y30.899 E11.50143
G1 X214.114 Y31.526 E11.53737
G1 X214.709 Y32.208 E11.57334
G1 X215.242 Y32.94 E11.60932
G1 X215.708 Y33.717 E11.64533
G1 X216.103 Y34.531 E11.68128
G1 X216.425 Y35.377 E11.71725
G1 X216.671 Y36.248 E11.75322
G1 X216.84 Y37.138 E11.78921
G1 X216.94 Y38.309 E11.83592
G1 X216.953 Y38.917 E11.86008
G1 X216.953 Y117.851 E14.99675
G1 X216.943 Y118.705 E15.03069
G1 X216.892 Y119.609 E15.06667
G1 X216.761 Y120.505 E15.10265
G1 X216.552 Y121.385 E15.13859
G1 X216.266 Y122.244 E15.17457
G1 X215.905 Y123.075 E15.21057
G1 X215.472 Y123.87 E15.24655
G1 X214.971 Y124.624 E15.28252
G1 X214.405 Y125.331 E15.31851
G1 X213.78 Y125.985 E15.35446
G1 X213.098 Y126.581 E15.39045
G1 X212.367 Y127.115 E15.42642
G1 X211.592 Y127.582 E15.46238
G1 X210.778 Y127.979 E15.49837
G1 X209.933 Y128.303 E15.53433
G1 X209.062 Y128.551 E15.57032
G1 X208.173 Y128.721 E15.60628
G1 X206.981 Y128.824 E15.65383
G1 X206.373 Y128.837 E15.67799
G1 X127.41 Y128.837 E18.81581
G1 X127.263 Y128.836 E18.82165
G1 X126.566 Y128.826 E18.84935
G1 X125.713 Y128.778 E18.8833
G1 X124.471 Y128.656 E18.93289
G1 X121.829 Y128.426 E19.03828
G1 X119.293 Y128.28 E19.13922
G1 X116.712 Y128.205 E19.24183
G1 X115.301 Y128.194 E19.2979
G1 X37.396 Y128.194 E22.39367
G1 X37.249 Y128.193 E22.39952
G1 X36.551 Y128.183 E22.42726
G0 F6000 X36.544 Y128.683
G1 F1200 X35.618 Y128.63 E22.46411
G1 X34.701 Y128.497 E22.50093
G1 X33.798 Y128.285 E22.53779
G1 X32.917 Y127.997 E22.57462
G1 X32.064 Y127.634 E22.61146
G1 X31.245 Y127.198 E22.64833
G1 X30.467 Y126.694 E22.68517
G1 X29.736 Y126.125 E22.72198
G1 X29.056 Y125.494 E22.75884
G1 X28.433 Y124.808 E22.79567
G1 X27.871 Y124.07 E22.83253
G1 X27.375 Y123.287 E22.86936
G1 X26.949 Y122.463 E22.90622
G1 X26.595 Y121.607 E22.94303
G1 X26.316 Y120.722 E22.97991
G1 X26.114 Y119.817 E23.01675
G1 X25.991 Y118.898 E23.0536
G1 X25.952 Y118.222 E23.08051
G1 X25.939 Y117.598 E23.10531
G1 X25.939 Y38.617 E26.24384
G1 X25.94 Y38.455 E26.25028
G1 X25.95 Y37.791 E26.27667
G1 X26.004 Y36.866 E26.31349
G1 X26.138 Y35.948 E26.35035
G1 X26.35 Y35.045 E26.38721
G1 X26.639 Y34.165 E26.42402
G1 X27.003 Y33.312 E26.46087
G1 X27.439 Y32.494 E26.49771
G1 X27.943 Y31.716 E26.53454
G1 X28.513 Y30.985 E26.57138
G1 X29.144 Y30.305 E26.60824
G1 X29.831 Y29.683 E26.64507
G1 X30.569 Y29.122 E26.68191
G1 X31.353 Y28.626 E26.71877
G1 X32.177 Y28.2 E26.75563
G1 X33.034 Y27.847 E26.79246
G1 X33.918 Y27.569 E26.82929
G1 X34.823 Y27.368 E26.86613
G1 X35.742 Y27.246 E26.90297
G1 X36.397 Y27.207 E26.92904
G1 X37.019 Y27.194 E26.95376
G1 X115.982 Y27.194 E30.09158
G1 X116.136 Y27.195 E30.0977
G1 X116.834 Y27.205 E30.12544
G1 X117.73 Y27.255 E30.1611
G1 X118.928 Y27.373 E30.20894
G1 X121.637 Y27.608 E30.31699
G1 X124.142 Y27.753 E30.4167
G1 X126.652 Y27.826 E30.51649
G1 X128.095 Y27.837 E30.57383
G1 X205.996 Y27.837 E33.66945
G1 X206.15 Y27.838 E33.67556
G1 X206.848 Y27.848 E33.7033
G1 X207.774 Y27.901 E33.74016
G1 X208.691 Y28.034 E33.77698
G1 X209.594 Y28.246 E33.81384
G1 X210.475 Y28.534 E33.85067
G1 X211.328 Y28.897 E33.88751
G1 X212.147 Y29.333 E33.92438
G1 X212.925 Y29.837 E33.96122
G1 X213.656 Y30.406 E33.99803
G1 X214.336 Y31.037 E34.03489
G1 X214.959 Y31.723 E34.07172
G1 X215.521 Y32.461 E34.10858
G1 X216.017 Y33.244 E34.14541
G1 X216.443 Y34.068 E34.18227
G1 X216.797 Y34.924 E34.21908
G1 X217.076 Y35.809 E34.25596
G1 X217.278 Y36.714 E34.2928
G1 X217.401 Y37.633 E34.32965
G1 X217.44 Y38.295 E34.356
G1 X217.453 Y38.917 E34.38072
G1 X217.453 Y117.851 E37.51739
G1 X217.443 Y118.711 E37.55156
G1 X217.392 Y119.637 E37.58842
G1 X217.261 Y120.555 E37.62527
G1 X217.051 Y121.458 E37.66211
G1 X216.764 Y122.339 E37.69893
G1 X216.403 Y123.193 E37.73577
G1 X215.969 Y124.013 E37.77264
G1 X215.466 Y124.792 E37.80949
G1 X214.898 Y125.524 E37.8463
G1 X214.269 Y126.205 E37.88314
G1 X213.584 Y126.83 E37.91999
G1 X212.847 Y127.393 E37.95684
G1 X212.065 Y127.89 E37.99366
G1 X211.242 Y128.318 E38.03053
G1 X210.386 Y128.674 E38.06737
G1 X209.503 Y128.955 E38.10419
G1 X208.598 Y129.158 E38.14105
G1 X207.679 Y129.283 E38.1779
G1 X206.995 Y129.324 E38.20513
G1 X206.373 Y129.337 E38.22985
G1 X127.41 Y129.337 E41.36767
G1 X127.256 Y129.336 E41.37379
G1 X126.559 Y129.326 E41.40149
G1 X125.664 Y129.276 E41.43711
G1 X124.474 Y129.159 E41.48463
G1 X121.755 Y128.923 E41.59308
G1 X119.25 Y128.778 E41.69279
G1 X116.74 Y128.705 E41.79257
G1 X115.297 Y128.694 E41.84992
G1 X37.396 Y128.694 E44.94553
G1 X37.242 Y128.693 E44.95165
G1 X36.544 Y128.683 E44.97939
G0 F6000 X36.537 Y129.183
G1 F1200 X35.59 Y129.129 E45.01709
G1 X34.651 Y128.996 E45.05477
G1 X33.726 Y128.784 E45.09248
G1 X32.823 Y128.496 E45.13015
G1 X31.947 Y128.132 E45.16784
G1 X31.105 Y127.695 E45.20554
G1 X30.303 Y127.189 E45.24322
G1 X29.546 Y126.618 E45.2809
G1 X28.84 Y125.984 E45.31861
G1 X28.189 Y125.294 E45.35631
G1 X27.6 Y124.551 E45.39398
G1 X27.075 Y123.761 E45.43168
G1 X26.618 Y122.93 E45.46936
G1 X26.233 Y122.063 E45.50706
G1 X25.922 Y121.167 E45.54475
G1 X25.688 Y120.248 E45.58243
G1 X25.533 Y119.312 E45.62013
G1 X25.452 Y118.235 E45.66305
G1 X25.439 Y117.598 E45.68837
G1 X25.439 Y38.617 E48.8269
G1 X25.44 Y38.448 E48.83362
G1 X25.45 Y37.784 E48.86001
G1 X25.505 Y36.837 E48.8977
G1 X25.638 Y35.898 E48.93539
G1 X25.851 Y34.973 E48.97311
G1 X26.14 Y34.07 E49.01078
G1 X26.505 Y33.195 E49.04846
G1 X26.942 Y32.353 E49.08616
G1 X27.448 Y31.551 E49.12384
G1 X28.021 Y30.794 E49.16157
G1 X28.654 Y30.089 E49.19922
G1 X29.345 Y29.439 E49.23692
G1 X30.089 Y28.85 E49.27462
G1 X30.879 Y28.325 E49.31232
G1 X31.711 Y27.869 E49.35002
G1 X32.578 Y27.485 E49.3877
G1 X33.474 Y27.175 E49.42538
G1 X34.393 Y26.942 E49.46305
G1 X35.329 Y26.787 E49.50075
G1 X36.383 Y26.707 E49.54275
G1 X37.019 Y26.694 E49.56803
G1 X115.982 Y26.694 E52.70585
G1 X116.143 Y26.695 E52.71225
G1 X116.841 Y26.705 E52.73999
G1 X117.778 Y26.758 E52.77728
G1 X118.925 Y26.871 E52.82308
G1 X121.675 Y27.11 E52.93277
G1 X124.15 Y27.253 E53.03129
G1 X126.67 Y27.326 E53.13147
G1 X128.099 Y27.337 E53.18826
G1 X205.996 Y27.337 E56.28371
G1 X206.157 Y27.338 E56.29011
G1 X206.855 Y27.348 E56.31785
G1 X207.802 Y27.402 E56.35554
G1 X208.741 Y27.535 E56.39323
G1 X209.666 Y27.747 E56.43094
G1 X210.569 Y28.035 E56.46861
G1 X211.445 Y28.399 E56.5063
G1 X212.287 Y28.836 E56.544
G1 X213.089 Y29.342 E56.58168
G1 X213.846 Y29.913 E56.61936
G1 X214.552 Y30.547 E56.65707
G1 X215.203 Y31.237 E56.69476
G1 X215.792 Y31.98 E56.73244
G1 X216.317 Y32.77 E56.77013
G1 X216.774 Y33.601 E56.80782
G1 X217.159 Y34.468 E56.84552
G1 X217.47 Y35.364 E56.88321
G1 X217.704 Y36.283 E56.92089
G1 X217.859 Y37.219 E56.95859
G1 X217.94 Y38.281 E57.00092
G1 X217.953 Y38.917 E57.02619
G1 X217.953 Y117.851 E60.16286
G1 X217.943 Y118.717 E60.19727
G1 X217.891 Y119.664 E60.23496
G1 X217.76 Y120.604 E60.27268
G1 X217.55 Y121.529 E60.31037
G1 X217.263 Y122.433 E60.34806
G1 X216.901 Y123.309 E60.38573
G1 X216.466 Y124.152 E60.42342
G1 X215.962 Y124.955 E60.4611
G1 X215.392 Y125.713 E60.49878
G1 X214.76 Y126.421 E60.5365
G1 X214.07 Y127.072 E60.57419
G1 X213.329 Y127.663 E60.61186
G1 X212.54 Y128.19 E60.64956
G1 X211.709 Y128.648 E60.68727
G1 X210.843 Y129.035 E60.72496
G1 X209.948 Y129.347 E60.76262
G1 X209.029 Y129.583 E60.80033
G1 X208.094 Y129.741 E60.83801
G1 X207.009 Y129.824 E60.88125
G1 X206.373 Y129.837 E60.90653
G1 X127.41 Y129.837 E64.04435
G1 X127.249 Y129.836 E64.05074
G1 X126.552 Y129.826 E64.07844
G1 X125.615 Y129.773 E64.11574
G1 X124.468 Y129.661 E64.16153
G1 X121.717 Y129.421 E64.27127
G1 X119.242 Y129.278 E64.36978
G1 X116.722 Y129.205 E64.46997
G1 X115.293 Y129.194 E64.52675
G1 X37.396 Y129.194 E67.62221
G1 X37.235 Y129.193 E67.62861
G1 X36.537 Y129.183 E67.65635
G1 F1500 E61.15635
;MESH:cover.stl(1)
G0 F6000 X46.938 Y118.609
G0 X46.938 Y116.681
G0 X48.796 Y115.921
;TYPE:WALL-INNER
G1 F1500 E67.65635
G1 F1200 X49.212 Y115.671 E67.67563
G1 X49.601 Y115.377 E67.69501
G1 X49.955 Y115.042 E67.71438
G1 X50.271 Y114.671 E67.73374
G1 X50.545 Y114.266 E67.75317
G1 X50.772 Y113.836 E67.7725
G1 X50.953 Y113.384 E67.79184
G1 X51.084 Y112.914 E67.81123
G1 X51.163 Y112.433 E67.8306
G1 X51.19 Y111.948 E67.84991
G1 X51.165 Y111.46 E67.86932
G1 X51.086 Y110.977 E67.88877
G1 X50.955 Y110.508 E67.90812
G1 X50.774 Y110.056 E67.92747
G1 X50.547 Y109.625 E67.94683
G1 X50.273 Y109.222 E67.96619
G1 X49.959 Y108.85 E67.98554
G1 X49.604 Y108.514 E68.00496
G1 X49.217 Y108.219 E68.0243
G1 X48.799 Y107.969 E68.04365
G1 X48.356 Y107.763 E68.06307
G1 X47.894 Y107.609 E68.08242
G1 X47.42 Y107.503 E68.10172
G1 X46.934 Y107.45 E68.12115
G1 X46.456 Y107.45 E68.14014
G1 X45.972 Y107.501 E68.15948
G1 X45.497 Y107.604 E68.17879
G1 X45.034 Y107.757 E68.19817
G1 X44.59 Y107.963 E68.21762
G1 X44.174 Y108.211 E68.23687
G1 X43.782 Y108.507 E68.25639
G1 X43.429 Y108.842 E68.27573
G1 X43.113 Y109.212 E68.29506
G1 X42.838 Y109.616 E68.31448
G1 X42.61 Y110.044 E68.33375
G1 X42.428 Y110.497 E68.35315
G1 X42.297 Y110.967 E68.37254
G1 X42.216 Y111.446 E68.39184
G1 X42.189 Y111.932 E68.41119
G1 X42.213 Y112.419 E68.43056
G1 X42.291 Y112.901 E68.44997
G1 X42.42 Y113.372 E68.46937
G1 X42.6 Y113.825 E68.48874
G1 X42.826 Y114.255 E68.50805
G1 X43.1 Y114.661 E68.52751
G1 X43.415 Y115.032 E68.54685
G1 X43.767 Y115.367 E68.56616
G1 X44.155 Y115.664 E68.58558
G1 X44.573 Y115.915 E68.60495
G1 X45.014 Y116.121 E68.62429
G1 X45.476 Y116.277 E68.64367
G1 X45.957 Y116.385 E68.66326
G1 X46.44 Y116.438 E68.68257
G1 X46.926 Y116.44 E68.70188
G1 X47.411 Y116.388 E68.72126
G1 X47.884 Y116.284 E68.74051
G1 X48.353 Y116.127 E68.76016
G1 X48.796 Y115.921 E68.77958
G0 F6000 X48.561 Y115.479
;TYPE:WALL-OUTER
G1 F1200 X48.932 Y115.256 E68.79678
G1 X49.277 Y114.995 E68.81397
G1 X49.592 Y114.697 E68.8312
G1 X49.872 Y114.368 E68.84837
G1 X50.116 Y114.008 E68.86565
G1 X50.318 Y113.626 E68.88282
G1 X50.479 Y113.224 E68.90003
G1 X50.595 Y112.806 E68.91727
G1 X50.665 Y112.379 E68.93446
G1 X50.689 Y111.947 E68.95166
G1 X50.667 Y111.513 E68.96892
G1 X50.597 Y111.085 E68.98616
G1 X50.481 Y110.668 E69.00336
G1 X50.32 Y110.266 E69.02057
G1 X50.118 Y109.883 E69.03777
G1 X49.874 Y109.525 E69.05499
G1 X49.595 Y109.194 E69.07219
G1 X49.28 Y108.896 E69.08942
G1 X48.936 Y108.634 E69.10661
G1 X48.564 Y108.411 E69.12384
G1 X48.171 Y108.228 E69.14107
G1 X47.76 Y108.091 E69.15828
G1 X47.338 Y107.997 E69.17546
G1 X46.907 Y107.95 E69.19269
G1 X46.482 Y107.95 E69.20958
G1 X46.051 Y107.995 E69.2268
G1 X45.629 Y108.087 E69.24396
G1 X45.218 Y108.223 E69.26117
G1 X44.824 Y108.406 E69.27843
G1 X44.453 Y108.627 E69.29559
G1 X44.106 Y108.889 E69.31287
G1 X43.792 Y109.187 E69.33007
G1 X43.511 Y109.516 E69.34726
G1 X43.267 Y109.875 E69.36451
G1 X43.064 Y110.256 E69.38167
G1 X42.902 Y110.658 E69.39889
G1 X42.786 Y111.076 E69.41613
G1 X42.714 Y111.502 E69.4333
G1 X42.69 Y111.934 E69.45049
G1 X42.711 Y112.367 E69.46772
G1 X42.78 Y112.795 E69.48494
G1 X42.895 Y113.213 E69.50217
G1 X43.055 Y113.616 E69.5194
G1 X43.256 Y113.998 E69.53656
G1 X43.499 Y114.358 E69.55382
G1 X43.779 Y114.688 E69.57101
G1 X44.092 Y114.986 E69.58819
G1 X44.437 Y115.25 E69.60545
G1 X44.808 Y115.473 E69.62265
G1 X45.2 Y115.656 E69.63984
G1 X45.611 Y115.795 E69.65708
G1 X46.039 Y115.891 E69.67451
G1 X46.468 Y115.938 E69.69166
G1 X46.9 Y115.94 E69.70883
G1 X47.33 Y115.894 E69.72601
G1 X47.751 Y115.801 E69.74315
G1 X48.168 Y115.662 E69.76061
G1 X48.561 Y115.479 E69.77784
G0 F6000 X48.819 Y115.964
G1 F1500 E63.27784
G0 F6000 X50.102 Y114.544
G0 X50.581 Y113.747
G0 X50.879 Y112.868
G0 X50.979 Y111.948
G0 X50.881 Y111.023
G0 X50.583 Y110.145
G0 X50.104 Y109.35
G0 X49.744 Y108.968
G0 X47.959 Y107.377
G0 X47.51 Y108.971
G0 X47.504 Y50.92
G0 X47.946 Y52.516
G0 X48.344 Y52.131
;TYPE:WALL-INNER
G1 F1500 E69.77784
G1 F1200 X48.789 Y51.925 E69.79733
G1 X49.206 Y51.676 E69.81663
G1 X49.595 Y51.381 E69.83603
G1 X49.949 Y51.048 E69.85534
G1 X50.266 Y50.676 E69.87476
G1 X50.539 Y50.273 E69.89411
G1 X50.768 Y49.845 E69.91339
G1 X50.95 Y49.393 E69.93276
G1 X51.081 Y48.922 E69.95218
G1 X51.162 Y48.443 E69.97149
G1 X51.189 Y47.956 E69.99087
G1 X51.165 Y47.47 E70.01021
G1 X51.087 Y46.987 E70.02965
G1 X50.958 Y46.518 E70.04898
G1 X50.778 Y46.065 E70.06835
G1 X50.552 Y45.634 E70.08769
G1 X50.28 Y45.23 E70.10704
G1 X49.964 Y44.856 E70.1265
G1 X49.611 Y44.521 E70.14584
G1 X49.224 Y44.225 E70.1652
G1 X48.808 Y43.973 E70.18452
G1 X48.364 Y43.766 E70.20399
G1 X47.902 Y43.612 E70.22334
G1 X47.428 Y43.506 E70.24264
G1 X46.944 Y43.452 E70.262
G1 X46.458 Y43.45 E70.28131
G1 X45.972 Y43.501 E70.30073
G1 X45.497 Y43.604 E70.32004
G1 X45.034 Y43.757 E70.33942
G1 X44.59 Y43.963 E70.35887
G1 X44.174 Y44.211 E70.37812
G1 X43.783 Y44.507 E70.3976
G1 X43.429 Y44.841 E70.41694
G1 X43.113 Y45.213 E70.43634
G1 X42.839 Y45.615 E70.45567
G1 X42.61 Y46.044 E70.475
G1 X42.428 Y46.496 E70.49436
G1 X42.297 Y46.966 E70.51375
G1 X42.216 Y47.446 E70.53309
G1 X42.188 Y47.943 E70.55287
G1 X42.214 Y48.431 E70.57229
G1 X42.291 Y48.901 E70.59122
G1 X42.42 Y49.371 E70.61059
G1 X42.6 Y49.824 E70.62996
G1 X42.826 Y50.254 E70.64926
G1 X43.099 Y50.659 E70.66867
G1 X43.415 Y51.032 E70.68809
G1 X43.767 Y51.367 E70.7074
G1 X44.155 Y51.663 E70.7268
G1 X44.571 Y51.915 E70.74612
G1 X45.014 Y52.121 E70.76554
